src/assets/wed_icon/icon_24/calendar_default.svg

<svg width="24" height="24" viewBox="0 0 24 24" fill="none" xmlns="http://www.w3.org/2000/svg">
<path fill-rule="evenodd" clip-rule="evenodd" d="M16.9091 4.5H7.09091C5.65999 4.5 4.5 5.65999 4.5 7.09091V16.9091C4.5 18.34 5.65999 19.5 7.09091 19.5H16.9091C18.34 19.5 19.5 18.34 19.5 16.9091V7.09091C19.5 5.65999 18.34 4.5 16.9091 4.5ZM7.09091 3C4.83156 3 3 4.83156 3 7.09091V16.9091C3 19.1684 4.83156 21 7.09091 21H16.9091C19.1684 21 21 19.1684 21 16.9091V7.09091C21 4.83156 19.1684 3 16.9091 3H7.09091Z" fill="#C6C6D2"/>
<path d="M3 7.09091C3 4.83156 4.83156 3 7.09091 3H16.9091C19.1684 3 21 4.83156 21 7.09091V7.90909C21 8.36096 20.6337 8.72727 20.1818 8.72727H3.81818C3.36631 8.72727 3 8.36096 3 7.90909V7.09091Z" fill="#C6C6D2"/>
<path fill-rule="evenodd" clip-rule="evenodd" d="M6.25 12C6.25 11.5858 6.58579 11.25 7 11.25H16C16.4142 11.25 16.75 11.5858 16.75 12C16.75 12.4142 16.4142 12.75 16 12.75H7C6.58579 12.75 6.25 12.4142 6.25 12Z" fill="#C6C6D2"/>
<path fill-rule="evenodd" clip-rule="evenodd" d="M6.25 16C6.25 15.5858 6.58579 15.25 7 15.25H13C13.4142 15.25 13.75 15.5858 13.75 16C13.75 16.4142 13.4142 16.75 13 16.75H7C6.58579 16.75 6.25 16.4142 6.25 16Z" fill="#C6C6D2"/>
</svg>

<svg xmlns="http://www.w3.org/2000/svg" width="24" height="24" fill="none"><path fill="#C6C6D2" fill-rule="evenodd" d="M16.91 4.5H7.09A2.59 2.59 0 0 0 4.5 7.09v9.82a2.59 2.59 0 0 0 2.59 2.59h9.82a2.59 2.59 0 0 0 2.59-2.59V7.09a2.59 2.59 0 0 0-2.59-2.59M7.09 3A4.09 4.09 0 0 0 3 7.09v9.82A4.09 4.09 0 0 0 7.09 21h9.82c2.258 0 4.09-1.832 4.09-4.09V7.09A4.09 4.09 0 0 0 16.91 3z" clip-rule="evenodd"/><path fill="#C6C6D2" d="M3 7.09A4.09 4.09 0 0 1 7.09 3h9.82A4.09 4.09 0 0 1 21 7.09v.82a.82.82 0 0 1-.818.817H3.818A.82.82 0 0 1 3 7.91z"/><path fill="#C6C6D2" fill-rule="evenodd" d="M6.25 12a.75.75 0 0 1 .75-.75h9a.75.75 0 0 1 0 1.5H7a.75.75 0 0 1-.75-.75M6.25 16a.75.75 0 0 1 .75-.75h6a.75.75 0 0 1 0 1.5H7a.75.75 0 0 1-.75-.75" clip-rule="evenodd"/></svg>
